dist/img/web.svg

<svg width="26" height="26" viewBox="0 0 26 26" fill="none" xmlns="http://www.w3.org/2000/svg">
<path d="M17.7237 15.1667C17.8103 14.4517 17.8753 13.7367 17.8753 13C17.8753 12.2634 17.8103 11.5484 17.7237 10.8334H21.3853C21.5587 11.5267 21.667 12.2525 21.667 13C21.667 13.7475 21.5587 14.4734 21.3853 15.1667M15.8062 21.19C16.4562 19.9875 16.9545 18.6875 17.3012 17.3334H20.497C19.4474 19.1407 17.7823 20.5097 15.8062 21.19ZM15.5353 15.1667H10.4653C10.357 14.4517 10.292 13.7367 10.292 13C10.292 12.2634 10.357 11.5375 10.4653 10.8334H15.5353C15.6328 11.5375 15.7087 12.2634 15.7087 13C15.7087 13.7367 15.6328 14.4517 15.5353 15.1667ZM13.0003 21.6234C12.1012 20.3234 11.3753 18.8825 10.9312 17.3334H15.0695C14.6253 18.8825 13.8995 20.3234 13.0003 21.6234ZM8.66699 8.66669H5.50366C6.54242 6.8545 8.20635 5.4833 10.1837 4.81002C9.53366 6.01252 9.04616 7.31252 8.66699 8.66669ZM5.50366 17.3334H8.66699C9.04616 18.6875 9.53366 19.9875 10.1837 21.19C8.2105 20.5093 6.54891 19.14 5.50366 17.3334ZM4.61533 15.1667C4.44199 14.4734 4.33366 13.7475 4.33366 13C4.33366 12.2525 4.44199 11.5267 4.61533 10.8334H8.27699C8.19032 11.5484 8.12533 12.2634 8.12533 13C8.12533 13.7367 8.19032 14.4517 8.27699 15.1667M13.0003 4.36585C13.8995 5.66585 14.6253 7.11752 15.0695 8.66669H10.9312C11.3753 7.11752 12.1012 5.66585 13.0003 4.36585ZM20.497 8.66669H17.3012C16.9621 7.32493 16.46 6.02974 15.8062 4.81002C17.7995 5.49252 19.457 6.86835 20.497 8.66669ZM13.0003 2.16669C7.00949 2.16669 2.16699 7.04169 2.16699 13C2.16699 15.8732 3.30836 18.6287 5.34 20.6603C6.34597 21.6663 7.54023 22.4643 8.85459 23.0087C10.1689 23.5531 11.5777 23.8334 13.0003 23.8334C15.8735 23.8334 18.629 22.692 20.6606 20.6603C22.6923 18.6287 23.8337 15.8732 23.8337 13C23.8337 11.5774 23.5534 10.1686 23.009 8.85428C22.4646 7.53992 21.6666 6.34566 20.6606 5.3397C19.6547 4.33373 18.4604 3.53575 17.1461 2.99133C15.8317 2.4469 14.423 2.16669 13.0003 2.16669Z" fill="#272727"></path>
</svg>

<svg width="26" height="26" fill="none" xmlns="http://www.w3.org/2000/svg"><path d="M17.724 15.167c.086-.715.151-1.43.151-2.167 0-.737-.065-1.452-.151-2.167h3.661c.174.694.282 1.42.282 2.167 0 .748-.108 1.473-.282 2.167m-5.579 6.023a16.955 16.955 0 0 0 1.495-3.857h3.196a8.699 8.699 0 0 1-4.69 3.857Zm-.27-6.023h-5.07A14.378 14.378 0 0 1 10.291 13c0-.737.065-1.463.173-2.167h5.07A15.8 15.8 0 0 1 15.71 13c0 .737-.076 1.452-.174 2.167ZM13 21.623c-.899-1.3-1.625-2.74-2.069-4.29h4.139c-.445 1.55-1.17 2.99-2.07 4.29ZM8.667 8.667H5.504a8.583 8.583 0 0 1 4.68-3.857c-.65 1.203-1.138 2.503-1.517 3.857Zm-3.163 8.666h3.163c.38 1.355.867 2.655 1.517 3.857a8.676 8.676 0 0 1-4.68-3.857Zm-.889-2.166A8.928 8.928 0 0 1 4.334 13c0-.748.108-1.473.281-2.167h3.662A17.89 17.89 0 0 0 8.125 13c0 .737.065 1.452.152 2.167M13 4.366c.9 1.3 1.625 2.752 2.07 4.3H10.93c.444-1.548 1.17-3 2.07-4.3Zm7.497 4.3h-3.196a16.96 16.96 0 0 0-1.495-3.856 8.652 8.652 0 0 1 4.691 3.857ZM13 2.167C7.01 2.167 2.167 7.043 2.167 13A10.833 10.833 0 1 0 13 2.167Z" fill="#272727"/></svg>
